X: 43413
T: Y Crwtyn Llwyd
R: polka
M: 2/4
K: Edorian
G>F ED|EF G2|FA GF|E2 E2|
G>F ED|EF G2|FA GF|E2 E2|
F>G AB|AG F2|F>G AB|AG F2|
G>F ED|EF G2|FA GF|E2 E2||

